Images/footer-social-icon-instagram.svg

<svg width="30" height="30" viewBox="0 0 30 30" fill="none" xmlns="http://www.w3.org/2000/svg">
<path d="M15 0C10.9223 0 10.4141 0.01969 8.81829 0.0871984C7.2159 0.165958 6.13202 0.414427 5.17565 0.785723C4.17471 1.1636 3.26822 1.75523 2.51938 2.51938C1.7531 3.26647 1.16114 4.17346 0.785723 5.17565C0.414427 6.13202 0.165958 7.2159 0.0871984 8.81829C0.0150019 10.4151 0 10.9223 0 15C0 19.0777 0.01969 19.5859 0.0871984 21.1817C0.165958 22.7794 0.414427 23.868 0.785723 24.8244C1.1636 25.8253 1.75523 26.7318 2.51938 27.4806C3.26647 28.2469 4.17346 28.8389 5.17565 29.2143C6.13202 29.5809 7.22059 29.834 8.81829 29.9128C10.4151 29.985 10.9223 30 15 30C19.0777 30 19.5859 29.9803 21.1817 29.9128C22.7794 29.834 23.868 29.5799 24.8244 29.2143C25.8253 28.8364 26.7318 28.2448 27.4806 27.4806C28.2479 26.7343 28.84 25.8271 29.2143 24.8244C29.5809 23.868 29.834 22.7794 29.9128 21.1817C29.985 19.5849 30 19.0777 30 15C30 10.9223 29.9803 10.4141 29.9128 8.81829C29.834 7.22059 29.5799 6.12639 29.2143 5.17565C28.8364 4.17471 28.2448 3.26822 27.4806 2.51938C26.7343 1.75212 25.8271 1.16 24.8244 0.785723C23.868 0.414427 22.7794 0.165958 21.1817 0.0871984C19.5849 0.0150019 19.0777 0 15 0ZM15 2.70034C19.0046 2.70034 19.4827 2.72003 21.0654 2.78754C22.5253 2.85598 23.3204 3.09976 23.8483 3.30604C24.5009 3.54693 25.0916 3.93035 25.5773 4.42837C26.0744 4.91201 26.4564 5.50133 26.6949 6.15264C26.9012 6.68052 27.145 7.47562 27.2134 8.93549C27.2809 10.5182 27.3006 10.9973 27.3006 15.0009C27.3006 19.0046 27.2809 19.4837 27.2078 21.0664C27.129 22.5263 26.8852 23.3214 26.6799 23.8492C26.3958 24.5534 26.0789 25.0456 25.5557 25.5782C25.0684 26.0731 24.4781 26.4547 23.8267 26.6958C23.3054 26.9021 22.4991 27.1459 21.0336 27.2143C19.4424 27.2818 18.9736 27.3015 14.9587 27.3015C10.9439 27.3015 10.476 27.2818 8.88299 27.2087C7.42312 27.13 6.6177 26.8862 6.08982 26.6808C5.37724 26.3967 4.88874 26.0798 4.36555 25.5566C3.83767 25.0288 3.502 24.5262 3.24322 23.8277C3.03319 23.3064 2.79316 22.5 2.71534 21.0345C2.6619 19.4621 2.63658 18.9746 2.63658 14.9784C2.63658 10.9842 2.6619 10.4957 2.71534 8.90361C2.79316 7.43812 3.03319 6.63364 3.24322 6.11045C3.502 5.39692 3.83861 4.90936 4.36555 4.38148C4.8878 3.85923 5.37724 3.52169 6.08982 3.25728C6.6177 3.05194 7.40343 2.80816 8.86892 2.73503C10.4601 2.67783 10.9289 2.65721 14.9381 2.65721L15 2.70034ZM15 7.30123C13.9886 7.30086 12.9871 7.49979 12.0527 7.88665C11.1182 8.27351 10.2691 8.84072 9.554 9.55587C8.83885 10.271 8.27164 11.1201 7.88477 12.0545C7.49791 12.989 7.29898 13.9905 7.29935 15.0019C7.29898 16.0132 7.49791 17.0148 7.88477 17.9492C8.27164 18.8837 8.83885 19.7327 9.554 20.4479C10.2691 21.163 11.1182 21.7302 12.0527 22.1171C12.9871 22.504 13.9886 22.7029 15 22.7025C16.0114 22.7029 17.0129 22.504 17.9473 22.1171C18.8818 21.7302 19.7309 21.163 20.446 20.4479C21.1612 19.7327 21.7284 18.8837 22.1152 17.9492C22.5021 17.0148 22.701 16.0132 22.7006 15.0019C22.701 13.9905 22.5021 12.989 22.1152 12.0545C21.7284 11.1201 21.1612 10.271 20.446 9.55587C19.7309 8.84072 18.8818 8.27351 17.9473 7.88665C17.0129 7.49979 16.0114 7.30086 15 7.30123ZM15 20.0022C12.2359 20.0022 9.99969 17.766 9.99969 15.0019C9.99969 12.2378 12.2359 10.0016 15 10.0016C17.7641 10.0016 20.0003 12.2378 20.0003 15.0019C20.0003 17.766 17.7641 20.0022 15 20.0022ZM24.8112 6.99369C24.8107 7.47156 24.6205 7.92968 24.2825 8.26742C23.9444 8.60514 23.4861 8.79485 23.0082 8.79485C22.7719 8.79485 22.5379 8.74831 22.3196 8.65789C22.1013 8.56746 21.903 8.43493 21.7359 8.26785C21.5688 8.10077 21.4363 7.90242 21.3459 7.68412C21.2554 7.46582 21.2089 7.23185 21.2089 6.99556C21.2089 6.75928 21.2554 6.5253 21.3459 6.307C21.4363 6.08871 21.5688 5.89035 21.7359 5.72327C21.903 5.55619 22.1013 5.42366 22.3196 5.33324C22.5379 5.24281 22.7719 5.19627 23.0082 5.19627C23.9993 5.19627 24.8112 6.00263 24.8112 6.99369Z" fill="white" fill-opacity="0.9"/>
</svg>

<svg xmlns="http://www.w3.org/2000/svg" width="30" height="30" fill="none" xmlns:v="https://vecta.io/nano"><path d="M15 0L8.818.087C7.216.166 6.132.414 5.176.786c-1.001.378-1.907.97-2.656 1.734-.766.747-1.358 1.654-1.734 2.656-.371.956-.62 2.04-.699 3.643L0 15l.087 6.182c.079 1.598.327 2.686.699 3.643.378 1.001.97 1.907 1.734 2.656.747.766 1.654 1.358 2.656 1.734.956.367 2.045.62 3.643.698L15 30l6.182-.087c1.598-.079 2.686-.333 3.643-.698 1.001-.378 1.907-.969 2.656-1.734.767-.746 1.359-1.653 1.734-2.656.367-.956.62-2.045.698-3.643L30 15l-.087-6.182c-.079-1.598-.333-2.692-.698-3.643-.378-1.001-.969-1.907-1.734-2.656-.746-.767-1.653-1.359-2.656-1.734-.956-.371-2.045-.62-3.643-.699L15 0zm0 2.7l6.065.087c1.46.068 2.255.312 2.783.519a4.68 4.68 0 0 1 1.729 1.122c.497.484.879 1.073 1.118 1.724.206.528.45 1.323.518 2.783l.087 6.065-.093 6.066c-.079 1.46-.323 2.255-.528 2.783-.284.704-.601 1.196-1.124 1.729a4.73 4.73 0 0 1-1.729 1.118c-.521.206-1.328.45-2.793.519l-6.075.087c-4.015 0-4.483-.02-6.076-.093-1.46-.079-2.265-.323-2.793-.528-.713-.284-1.201-.601-1.724-1.124s-.864-1.03-1.122-1.729c-.21-.521-.45-1.328-.528-2.793l-.079-6.056.079-6.075c.078-1.465.318-2.27.528-2.793.259-.714.595-1.201 1.122-1.729.522-.522 1.012-.86 1.724-1.124.528-.205 1.314-.449 2.779-.522l6.069-.078L15 2.7zm0 4.601c-1.011 0-2.013.199-2.947.585s-1.784.954-2.499 1.669a7.7 7.7 0 0 0-2.255 5.446 7.7 7.7 0 0 0 2.255 5.446 7.7 7.7 0 0 0 2.499 1.669c.934.387 1.936.586 2.947.585s2.013-.198 2.947-.585a7.7 7.7 0 0 0 2.499-1.669c.715-.715 1.282-1.564 1.669-2.499s.586-1.936.585-2.947-.199-2.013-.585-2.947-.954-1.783-1.669-2.499-1.564-1.282-2.499-1.669-1.936-.586-2.947-.585zm0 12.701a5 5 0 1 1 0-10.001 5 5 0 1 1 0 10.001zm9.811-13.009c0 .478-.191.936-.529 1.274s-.796.527-1.274.527a1.8 1.8 0 0 1-1.272-.527 1.8 1.8 0 0 1-.527-1.272 1.8 1.8 0 0 1 .527-1.272 1.8 1.8 0 0 1 1.272-.527c.991 0 1.803.806 1.803 1.797z" fill="#fff" fill-opacity=".9"/></svg>
